src/images/svg/symbols/polygon.svg

<svg width="33" height="32" viewBox="0 0 33 32" fill="none" xmlns="http://www.w3.org/2000/svg">
<circle cx="16.5" cy="16" r="16" fill="#8247E5"/>
<path d="M21.1292 12.8407C20.8003 12.6527 20.3773 12.6527 20.0013 12.8407L17.3695 14.3916L15.5836 15.3786L12.9987 16.9295C12.6697 17.1175 12.2467 17.1175 11.8708 16.9295L9.84987 15.7076C9.52089 15.5196 9.2859 15.1436 9.2859 14.7206V12.3708C9.2859 11.9948 9.47389 11.6188 9.84987 11.3838L11.8708 10.2089C12.1997 10.0209 12.6227 10.0209 12.9987 10.2089L15.0196 11.4308C15.3486 11.6188 15.5836 11.9948 15.5836 12.4178V13.9687L17.3695 12.9347V11.3368C17.3695 10.9608 17.1815 10.5849 16.8055 10.3499L13.0457 8.14099C12.7167 7.953 12.2937 7.953 11.9178 8.14099L8.06397 10.3969C7.68799 10.5849 7.5 10.9608 7.5 11.3368V15.7546C7.5 16.1305 7.68799 16.5065 8.06397 16.7415L11.8708 18.9504C12.1997 19.1384 12.6227 19.1384 12.9987 18.9504L15.5836 17.4465L17.3695 16.4125L19.9543 14.9086C20.2833 14.7206 20.7063 14.7206 21.0822 14.9086L23.1031 16.0836C23.4321 16.2715 23.6671 16.6475 23.6671 17.0705V19.4204C23.6671 19.7963 23.4791 20.1723 23.1031 20.4073L21.1292 21.5822C20.8003 21.7702 20.3773 21.7702 20.0013 21.5822L17.9804 20.4073C17.6514 20.2193 17.4164 19.8433 17.4164 19.4204V17.9164L15.6305 18.9504V20.5013C15.6305 20.8773 15.8185 21.2533 16.1945 21.4883L20.0013 23.6971C20.3303 23.8851 20.7533 23.8851 21.1292 23.6971L24.936 21.4883C25.265 21.3003 25.5 20.9243 25.5 20.5013V16.0366C25.5 15.6606 25.312 15.2846 24.936 15.0496L21.1292 12.8407Z" fill="white"/>
</svg>

<svg width="33" height="32" fill="none" xmlns="http://www.w3.org/2000/svg"><circle cx="16.5" cy="16" r="16" fill="#8247E5"/><path d="M21.13 12.84c-.33-.187-.753-.187-1.129 0l-2.632 1.552-1.785.987-2.585 1.55c-.33.189-.752.189-1.128 0L9.85 15.709a1.146 1.146 0 0 1-.564-.987v-2.35c0-.376.188-.752.564-.987l2.02-1.175c.33-.188.753-.188 1.129 0l2.02 1.222c.33.188.565.564.565.987v1.55l1.785-1.033v-1.598a1.16 1.16 0 0 0-.564-.987l-3.76-2.209c-.328-.188-.751-.188-1.127 0l-3.854 2.256a1.034 1.034 0 0 0-.564.94v4.418c0 .376.188.751.564.986l3.807 2.21c.329.187.752.187 1.128 0l2.585-1.505 1.785-1.034 2.585-1.503c.33-.188.752-.188 1.128 0l2.021 1.175c.33.188.564.564.564.986v2.35c0 .376-.188.752-.564.987l-1.974 1.175c-.329.188-.752.188-1.128 0l-2.02-1.175a1.146 1.146 0 0 1-.565-.987v-1.504L15.63 18.95v1.551c0 .376.188.752.565.987L20 23.698c.33.187.752.187 1.128 0l3.807-2.21c.329-.188.564-.564.564-.987v-4.464a1.16 1.16 0 0 0-.564-.987l-3.807-2.21Z" fill="#fff"/></svg>
